X:15
T:Gray Eagle
M:2/4
L:1/16
Z:jason
B: Floyd Smith, 1952
N: An extension of an earlier 2-part tune of the same name.  Also "Forked Deer".
K:A
cB | A2AF ECEF | A2Ac BAcB | A2AF ECEF | ABcA B2cB |
A2AF ECEF | A2Ac BAcd | ecea faed | cABc A2 :| 
|: af | ecAc ecfc | ecAc e2af | ecAc ecfc | ecAc BGEG |
ABcd ecfc | ecfc e2fg | agae faed | cABG A2 :|
|: eg | a2ab a2e!1!g | !2!agab c'ae!3!a | fefg fecf | ecAc BAef |
 a2ab a2e!1!g | !2!agab c'ae!1!a | e'aea fgaf | ecBG A2 :|

